X:1
T:The Star of County Down
M:C
L:1/8
Q:80
C:Arr: G. K. Speirs
S:March
K:HP
|: {g}GA | \
{g}B2{G}B2{g}B2{g}A{d}B | \
{Gdc}d2{c}d2{gef}e2{g}de |
{g}f2{g}ed{g}B2{g}AG | \
{g}A6{g}dc | \
{g}B2{G}B2{g}B2{g}A{d}B |
{Gdc}d2{c}d2{gef}e2{g}de | \
{g}f2{g}ed{g}B2-B3/2A/2 | \
{GdG}B6 ::
{g}fg | \
a2{g}a2{fg}f2{g}ed | \
{gef}e2{A}e2{g}e2{g}de |
{g}f2{g}ed{g}B2{g}AG | \
{g}A6{g}dc | \
{g}B2{G}B2{g}B2{g}A{d}B |
{Gdc}d2{c}d2{gef}e2{g}de | \
{g}f2{g}ed{g}B2-B3/2A/2 | \
{GdG}B6 :|
